X:30
T:score123
L:1/8
Q:1/4=96
M:4/4
I:linebreak $
K:Emin
!p! (EG) | B2 B2 B2!<(! c2 |!<)!!>(! c2!>)! B2 z2!<(! c2!<)! |!>(! c2!>)! B2 z2!<(! (e2 |$ %4
 d3) c!<)!!>(! B2 z!>)!!p! B!<(! | A2 A2 A2 A2 | (A3 !turn!B dc)!<)!(uB"^dim."A) |$ %7
 (AG) (3(GFE)!<(! B3!<)!!>(! ^D | E2!>)! z2 z4 |] %9
